files/1/22x22/places/user-desktop.svg

<?xml version="1.0" encoding="UTF-8" standalone="no"?>
<svg
   xmlns:dc="http://purl.org/dc/elements/1.1/"
   xmlns:cc="http://creativecommons.org/ns#"
   xmlns:rdf="http://www.w3.org/1999/02/22-rdf-syntax-ns#"
   xmlns:svg="http://www.w3.org/2000/svg"
   xmlns="http://www.w3.org/2000/svg"
   xmlns:sodipodi="http://sodipodi.sourceforge.net/DTD/sodipodi-0.dtd"
   xmlns:inkscape="http://www.inkscape.org/namespaces/inkscape"
   width="22"
   height="22"
   viewBox="0 0 22 22"
   id="svg2"
   version="1.1"
   inkscape:version="0.48.5 r10040"
   sodipodi:docname="user-desktop.svg">
  <metadata
     id="metadata20">
    <rdf:RDF>
      <cc:Work
         rdf:about="">
        <dc:format>image/svg+xml</dc:format>
        <dc:type
           rdf:resource="http://purl.org/dc/dcmitype/StillImage" />
      </cc:Work>
    </rdf:RDF>
  </metadata>
  <defs
     id="defs18" />
  <sodipodi:namedview
     pagecolor="#ffffff"
     bordercolor="#666666"
     borderopacity="1"
     objecttolerance="10"
     gridtolerance="10"
     guidetolerance="10"
     inkscape:pageopacity="0"
     inkscape:pageshadow="2"
     inkscape:window-width="1280"
     inkscape:window-height="969"
     id="namedview16"
     showgrid="true"
     inkscape:zoom="15.170655"
     inkscape:cx="8.1242301"
     inkscape:cy="11.254459"
     inkscape:window-x="0"
     inkscape:window-y="0"
     inkscape:window-maximized="1"
     inkscape:current-layer="svg2">
    <inkscape:grid
       type="xygrid"
       id="grid4315" />
  </sodipodi:namedview>
  <path
     style="font-size:medium;font-style:normal;font-variant:normal;font-weight:normal;font-stretch:normal;text-indent:0;text-align:start;text-decoration:none;line-height:normal;letter-spacing:normal;word-spacing:normal;text-transform:none;direction:ltr;block-progression:tb;writing-mode:lr-tb;text-anchor:start;baseline-shift:baseline;color:#000000;fill:#e9b080;fill-opacity:1;fill-rule:nonzero;stroke:none;stroke-width:1.03313816;marker:none;visibility:visible;display:inline;overflow:visible;enable-background:accumulate;font-family:Sans;-inkscape-font-specification:Sans"
     d="m 3.0000116,2.0000004 c -0.5473306,0 -1,0.4096882 -1,1 l 0,1 -1,0 c -0.50192724,0 -1.000000044444,0.3847489 -1.000000044444,1 -1.53000004e-5,4.5937493 0,9.4062496 0,13.9999996 0,0.545771 0.493417304444,1 1.000000044444,1 l 20.0000004,0 c 0.515688,0 1,-0.437034 1,-1 l 0,-12.9999996 c 0,-0.5770209 -0.423105,-1 -1,-1 l -2,0 0,-2 c 0,-0.4874255 -0.401824,-1 -1,-1 z"
     id="path2995"
     inkscape:connector-curvature="0"
     sodipodi:nodetypes="ccccccssssscssc" />
  <path
     style="font-size:medium;font-style:normal;font-variant:normal;font-weight:normal;font-stretch:normal;text-indent:0;text-align:start;text-decoration:none;line-height:normal;letter-spacing:normal;word-spacing:normal;text-transform:none;direction:ltr;block-progression:tb;writing-mode:lr-tb;text-anchor:start;baseline-shift:baseline;color:#000000;fill:#000000;fill-opacity:0.32156863;fill-rule:nonzero;stroke:none;stroke-width:1.03313816;marker:none;visibility:visible;display:inline;overflow:visible;enable-background:accumulate;font-family:Sans;-inkscape-font-specification:Sans"
     d="m 3.0000116,2.0000004 c -0.5444543,0 -1,0.3988699 -1,1 l 0,1 -1,0 c -0.50675954,0 -1.000000044444,0.3964676 -1.000000044444,1 -2.6e-5,4.5937491 0,9.4062496 0,13.9999996 0,0.487177 0.419198604444,1 1.000000044444,1 l 20.0000004,0 c 0.521212,0 1,-0.442558 1,-1 l 0,-12.9999996 c 0,-0.5731146 -0.393904,-1 -1,-1 l -2,0 0,-2 c 0,-0.5585119 -0.457433,-1 -1,-1 z m 10.0000004,3 0,1 8,0 0,12.9999996 -20.0000004,0 0,-13.9999996 z"
     id="path3786"
     inkscape:connector-curvature="0"
     sodipodi:nodetypes="ssccccssssscsssccccccc" />
  <path
     inkscape:connector-curvature="0"
     id="path12"
     d="m 7.332031,9.625 0,0.917969 0.460938,0 0,-0.6875 c 0,-0.234375 0.226562,-0.234375 0.226562,-0.234375 l 0.6875,0.00391 0,-0.457031 -0.914062,0 c 0,0 -0.460938,0 -0.460938,0.457031 z m 5.960938,-0.457031 0,0.457031 0.6875,0 c 0,0 0.226562,-0.00391 0.226562,0.230469 l 0,0.6875 0.460938,0 0,-0.917969 c 0,-0.457031 -0.460938,-0.457031 -0.460938,-0.457031 z m -5.960938,5.039062 0,0.917969 c 0,0.457031 0.460938,0.457031 0.460938,0.457031 l 0.914062,0 0,-0.457031 -0.6875,0.0039 C 7.792969,15.125 7.792969,14.898438 7.792969,14.898438 l 0,-0.691407 z m 6.875,0 0,0.6875 c 0,0.226563 -0.226562,0.230469 -0.226562,0.230469 l -0.6875,0 0,0.457031 0.914062,0 c 0,0 0.460938,0 0.460938,-0.457031 l 0,-0.917969 z"
     style="fill:#000000;fill-rule:evenodd;fill-opacity:0.32156864" />
  <path
     style="fill:#000000;fill-opacity:0.32156864"
     inkscape:connector-curvature="0"
     id="path14"
     d="m 8.707031,10.996094 0,1.835937 c 0,0.457031 0.460938,0.457031 0.460938,0.457031 l 1.375,0 C 11,13.289062 11,12.832031 11,12.832031 l 0,-1.375 -0.917969,-0.917969 -0.914062,0 c 0,0 -0.460938,0 -0.460938,0.457032 z m 0.460938,0 0.914062,0 0,0.460937 0.460938,0 0,1.375 -1.375,0 z" />
</svg>

<svg width="22" xmlns="http://www.w3.org/2000/svg" height="22" viewBox="0 0 22 22" xmlns:xlink="http://www.w3.org/1999/xlink">
<g style="stroke:#a57953">
<path style="fill:#a57953" d="M 3.0747868,17.497151 C 2.762651,17.466647 2.4999999,17.157803 2.4999999,16.829893 l 0,-12.6588176 c 0,-0.3507866 0.3045229,-0.6710699 0.6394983,-0.6710699 l 15.7210038,0 c 0.334974,0 0.639498,0.3202833 0.639498,0.6710699 l 0,11.4844456 c 0,0.350786 -0.304524,0.667258 -0.639498,0.667258 l -6.139947,0 0,0.507114 c 0,0.350786 -0.304523,0.667257 -0.635691,0.667257 l -8.9453658,0 c -0.02284,0.0038 -0.041872,0.0038 -0.064711,0 z"/>
<path style="fill:#e9b080" d="M 1.211697,5.5 C 0.82207275,5.5308192 0.49606072,5.8390204 0.50003613,6.1664833 l 0,12.6631817 c 0,0.350578 0.37372172,0.670335 0.78720037,0.670335 l 19.4255635,0 c 0.413479,0 0.7872,-0.319757 0.7872,-0.670335 l 0,-11.4843152 c 0,-0.3505782 -0.373721,-0.6703359 -0.7872,-0.6703359 l -7.585749,0 0,-0.5085306 C 13.127051,5.8197582 12.753329,5.5 12.33985,5.5 l -11.0526135,0 c -0.02783,0 -0.051685,0 -0.075539,0 z"/>
</g>
<g style="fill:#a57953">
<path style="fill-rule:evenodd" d="M 7.332031 9.625 L 7.332031 10.542969 L 7.792969 10.542969 L 7.792969 9.855469 C 7.792969 9.621094 8.019531 9.621094 8.019531 9.621094 L 8.707031 9.625 L 8.707031 9.167969 L 7.792969 9.167969 C 7.792969 9.167969 7.332031 9.167969 7.332031 9.625 Z M 13.292969 9.167969 L 13.292969 9.625 L 13.980469 9.625 C 13.980469 9.625 14.207031 9.621094 14.207031 9.855469 L 14.207031 10.542969 L 14.667969 10.542969 L 14.667969 9.625 C 14.667969 9.167969 14.207031 9.167969 14.207031 9.167969 Z M 7.332031 14.207031 L 7.332031 15.125 C 7.332031 15.582031 7.792969 15.582031 7.792969 15.582031 L 8.707031 15.582031 L 8.707031 15.125 L 8.019531 15.128906 C 7.792969 15.125 7.792969 14.898438 7.792969 14.898438 L 7.792969 14.207031 Z M 14.207031 14.207031 L 14.207031 14.894531 C 14.207031 15.121094 13.980469 15.125 13.980469 15.125 L 13.292969 15.125 L 13.292969 15.582031 L 14.207031 15.582031 C 14.207031 15.582031 14.667969 15.582031 14.667969 15.125 L 14.667969 14.207031 Z "/>
<path d="M 8.707031 10.996094 L 8.707031 12.832031 C 8.707031 13.289062 9.167969 13.289062 9.167969 13.289062 L 10.542969 13.289062 C 11 13.289062 11 12.832031 11 12.832031 L 11 11.457031 L 10.082031 10.539062 L 9.167969 10.539062 C 9.167969 10.539062 8.707031 10.539062 8.707031 10.996094 Z M 9.167969 10.996094 L 10.082031 10.996094 L 10.082031 11.457031 L 10.542969 11.457031 L 10.542969 12.832031 L 9.167969 12.832031 Z "/>
</g>
</svg>
